!!!SOCIAL_FUNCTION:	songs of the sun dance
!!!PDT:	1918

Specific Region: Dakotas, Minnesota, Montana, Nebraska
!!!REG: Dakotas and Montana
!!!LING_GROUP: Siouan
!!!LANG: Tone
!!!OTL@ENG: Opening Prayer of the Sun Dance
!!!ONM: No. 21
**kern
*Imale
*clefF4
*k[b-e-a-d-g-]
*M3/4
*>[A,B,B]
*>norep[A,B]
*>A
*MM168
4f
4f
4f
=2
[2.f
=3
2.f]
=4
4f
4c
(16e-
8.d-)
=5
2.c
=6
2.c
*>B
=7!|:
4d-
4d-
4d-
=8
[2.d-
=9
2.d-]
=10
(16e-
8.d-)
4c
(16e-
8.d-)
=11
2.c
=12
2.c
=13
4B-
4B-
4B-
=14
[2.B-
=15
2.B-]
=16
4A-
4A-
4c
=17
2.c
=18
2.c
=19
2.c
=20
(16d-
8.c)
4B-
(16d-
8.c)
=21
2.B-
=22
2.B-
=23
4F
4F
4F
=24
[2.F
=25
2.F]
=26
4D-
4D-
4G-
=27
[2.G-
=28
2.G-]
=29
2F
4F
=30
2.F
=31
2.F
=32
2D-
4D-
=33
2.D-
=34
[2.D-
=35
2.D-]
=36
[2.D-
=37
2.D-]
==:|!
*-
!!!CNT: Native American -- Sioux
!!!MRD: 1911/07//-1914///
!!!OCL: Frances Densmore
!!!YOR1: Teton Sioux Music, Bulletin 61,
!!!YOR2: Bureau of American Ethnology, Smithsonian Institution
!!!PPR: Government Printing Office
!!!PPP: Washington, D.C.
!!!PDT: 1918///
!!!ENC: Craig Stuart Sapp
!!!END: 2002/03/25/
!!!EEV: 2002/03/31/
!!!AGN: Ceremonial Song/Song of the Sun Dance
!!!MPN@@SIO: Zintka'la-lu'ta
!!!MPN@ENG: Red Bird
!!!TXO: Teton Sioux
!!!MLC: Standing Rock Reservation, South Dakota, United States of America
!!!ARL: 45.9/-100.7#
!!!catalog: Catalogue No. 501
!!!PPG: 130
!!!EFL: 21/245
!!!VTS: 1350928708
